X:1
T:[ID 2-3a]
T:[ID 2-3a]
T:Bezeichnung standardisiert: Menuett Menuet
T:Urheber unbekannt Datum in der hier transkribierten schriftlichen Quelle: 1767
C:Urheber unbekannt
C:Datum in der hier transkribierten schriftlichen Quelle: 1767
L:1/8
M:3/4
K:G
V:1 treble 
V:1
 G>G B>B d>d | g2 d4 | e>e d>d c>c | B2 G4 | d2 B4 | c2 A4 | BddccB | B2 A4 :: A2 A2 A2 | A3 B cA | %10
 B3 c d2 | d2 B2 B2 A2"^[Notat bricht hier ab]" | %12

